X:1
T:Dereinst, Gedanke mein
T:Dereinst, Gedanke mein
T:Edvard Grieg Op. 48, no. 2 (1889)
T:Emanuel Geibel (trans. Nordahl Rolfsen)
T:CC0. Transcribed from public domain source by Kat Walsh.
T:CC0. Transcribed from public domain source by Kat Walsh.
T:CC0. Transcribed from public domain source by Kat Walsh.
C:Edvard Grieg
Z:Geibel
Z:CC0. Transcribed from public domain source by Kat Walsh.
%%score ( 1 2 ) { ( 3 4 ) | ( 5 6 7 ) }
L:1/8
M:4/4
K:B
V:1 treble nm="Voice"
V:2 treble 
V:3 treble nm="Piano"
V:4 treble 
V:5 bass 
V:6 bass 
V:7 bass 
V:1
"^Molto andante" z8 | z8 | z2!p! D2 F3 F |!<(! G2 B2 B4!<)! | z2 A2!>(! G3 G!>)! | %5
w: ||Der- einst, Ge-|dan- ke mein,|wirst ru- hig|
w: ||Jeg ved, min|Tan- ke, ved:|du skal få|
 F4 z2"_ed agitato""^cresc." G2 |!<(! F>!>(!^E!<)!!>)! E2 z!<(! =EEF!<)! |[M:2/4] E2 D2 | %8
w: sein. Lässt|Lie- bes- glut dich still nicht|wer- den,|
w: Fred! Vil|El- skovs- glød dig Ro ej|un de,|
[M:4/4] z!f!"^molto ten." ^^CC"^dim."A A2 D2 | z2!>(! A2 A3 A!>)! | %10
w: in küh- ler Er- den|da schläfst du|
w: du svalt skal blun- de|i Jor- dens|
!pp! A4 z !tenuto!B!tenuto!B!>(!!tenuto!c | !tenuto!c4 z BBB!>)! |!ppp! A4- A3 A | %13
w: gut, dort oh- ne|Lieb' und oh- ne|Pein _ wirst|
w: Skjød, hvor u- den|Håb og u- den|Frygt _ du|
"^ben ten."!<(! A3!<)!!>(! D!>)! D4 | z8 | z8 | z2!p! D2 F3 F |!<(! (G2 B2) B4!<)! | %18
w: ru- hig sein.|||Was du im|Le- * ben|
w: so- ver trygt.|||Hvad du i|Li- * vet|
 z2 !>!A2 z2!>(! GG!>)! | F2 F2 z F"^cresc ed. agitato"!<(!FG!<)! |!>(! F2!>)! ^E2 z =E E>!<(!F | %21
w: nicht hast ge-|fun- den, was du im|Le- ben nicht hast ge-|
w: al * har|fun- det, hvad du i|Li- vet al- drig har|
[M:2/4] E2 D2!<)! |[M:4/4] z!f!"^molto ten." ^^CC"^dim."A A2 D2 | z2 A2!>(! A3 A!>)! | %24
w: fun- den,|wenn es ent- schwun- den,|wird's dir ge-|
w: fun- det,|når det er svun- det,|blir det dig|
!pp! A2 A2 z !tenuto!B!tenuto!B!tenuto!c | !tenuto!c2 c2 z!>(! BBB!>)! |!ppp! A4- A3 A | %27
w: ge- ben, dann oh- ne|Wun- den und oh- ne|Pein _ wirst|
w: gi- vet, og Så- ret|luk- kes og u- den|Frygt _ du|
"^ben ten."!<(! A3!<)!!>(! D!>)! D4 | z8 | z8 | z8 |] %31
w: ru- hig sein.||||
w: so- ver trygt.||||
V:2
 x8 | x8 | x8 | x8 | x8 | x8 | x8 |[M:2/4] x4 |[M:4/4] x8 | x8 | x8 | x8 | x8 | x8 | x8 | x8 | x8 | %17
w: |||||||||||||||||
w: |||||||||||||||||
 x8 | x4 G2- G x | x8 | x8 |[M:2/4] x4 |[M:4/4] x8 | x8 | x8 | x8 | x8 | x8 | x8 | x8 | x8 |] %31
w: ||||||||||||||
w: |drig _|||||||||||||
V:3
!pp! (d4!<(! f4!<)! |!>(! g4!>)! b4) |!p! D4!<(! F4!<)! | G4 B4 | A4!>(! G4!>)! | (F8- | %6
 F2 ^E2)!<(! (!>!=E4-!<)! |[M:2/4] E2 D2) |[M:4/4] !>![^^F,A,^^C]4 [F,A,D]4 | E4!>(! D4!>)! | %10
!pp! (^^C4!<(! (D2 ^E2))!<)! |!>(! (F4 (^E2 D2))!>)! |!ppp! (D4- D2 ^^C2) | D4[I:staff +1] G,4 | %14
"^m.s.""^m.s."[I:staff -1] ((!tenuto!A3 !tenuto!D))"^m.d.""^m.d." (([db]2 [^ec']2)) | %15
 [^^fad']4 [^^F,A,D]4 |!p! D4 F4 |!<(! G4 B4!<)! | A4!>(! G4!>)! | (F8- | F2 ^E2)!<(! (!>!=E4- | %21
[M:2/4] E2!<)! D2) |[M:4/4] !>![^^F,A,^^C]4 [F,A,D]4 | E4!>(! D4!>)! | %24
!pp! (^^C4!<(! (D2 ^E2))!<)! |!>(! (F4 (^E2 D2))!>)! |!ppp! (D4- D2 ^^C2) | D4[I:staff +1] G,4 | %28
"^m.s."[I:staff -1] (!tenuto!A3 !tenuto!D)"^m.d." ([db]2 [^ec']2) | [^^fad']4 (!tenuto![^^F,A,D]4 | %30
 !tenuto![^^F,A,D]8) |] %31
V:4
 B4 c2 d2 | e2 c2 d4 | B,4 C2 D2 | E4 D2 ^E2 | F4 E4- | E2 D2 !>![B,=D]4 | [G,C]4 [=A,=C]4 | %7
[M:2/4] [F,B,]4 |[M:4/4] x8 | x8 | x8 | x8 | x8 | x8 | x4 B2 [^Ec]2 | d4 x4 | B,4 C2 D2 | %17
 E4 D2 ^E2 | F4 E4- | E2 D2 !>![B,=D]4 | [G,C]4 [=A,=C]4 |[M:2/4] [F,B,]4 |[M:4/4] x8 | x8 | x8 | %25
 x8 | x8 | x8 | x4 B2 [^Ec]2 | d4 x4 | x8 |] %31
V:5
[I:staff -1] (G4 [FA]4 | [EB]4 [B,FB]4) |[I:staff +1] G,4 [F,A,]4 | [E,B,-]4 [G,B,]4 | C4- C2 B,2 | %5
 [D,A,]4"^cresc." !arpeggio!!>![G,,=D,]4 |"^ed agitato" C,4 !arpeggio!!>![F,,=C,]4 |[M:2/4] B,,4 | %8
[M:4/4]!f!"^molto ten." !>![E,,A,,]4"^dim." [D,,A,,]4 | [^^F,A,]4 [F,A,]4 | %10
 [^E,A,]4"^poco" [G,B,]4 | [A,C]4 [G,B,]4 | [^^F,A,]4 [^E,A,]4 | [^^F,A,]4 ([D,B,]2 [^E,C]2) | %14
"_m.d." [^^F,A,D]4[I:staff -1] [D-Gg]4 | [D^^FA]4[I:staff +1] [D,,A,,D,]4 | G,4 [F,A,]4 | %17
 [E,B,-]4 [G,B,]4 | C4- C2 B,2 | [D,A,]4"^cresc ed. agitato" !arpeggio!!>![G,,=D,]4 | %20
 C,4 !arpeggio!!>![F,,=C,]4 |[M:2/4] B,,4 |[M:4/4]!f!"^molto ten." !>![E,,A,,]4"^dim." [D,,A,,]4 | %23
 [^^F,A,]4 [F,A,]4 | [^E,A,]4"^poco" [G,B,]4 | C4 [G,B,]4 | [^^F,A,]4 [^E,A,]4 | %27
 [^^F,A,]4 ([D,B,]2 [^E,C]2) |"_m.d." [^^F,A,D]4[I:staff -1] [D-Gg]4 | %29
 [D^^FA]4[I:staff +1] (!tenuto![D,,A,,D,]4 | !tenuto![D,,A,,D,]8) |] %31
V:6
 x8 | x8 | x8 | x8 | F,4 C,4 | x8 | x8 |[M:2/4] x4 |[M:4/4] x8 | [^^C,,A,,]4 [D,,A,,]4 | %10
 ([A,,,A,,]4 [G,,,G,,]4) | ([F,,,F,,]4 [G,,,G,,]4) | [A,,,A,,]8 | [D,,,D,,]8 | x8 | x8 | x8 | x8 | %18
 F,4 C,4 | x8 | x8 |[M:2/4] x4 |[M:4/4] x8 | [^^C,,A,,]4 [D,,A,,]4 | ([A,,,A,,]4 [G,,,G,,]4) | %25
 ([F,,,F,,]4 [G,,,G,,]4) | [A,,,A,,]8 | [D,,,D,,]8 | x8 | x8 | x8 |] %31
V:7
 x8 | x8 | x8 | x8 | x8 | x8 | x8 |[M:2/4] x4 |[M:4/4] x8 | x8 | x8 | x8 | x8 | x8 | x8 | x8 | x8 | %17
 x8 | x8 | x8 | x8 |[M:2/4] x4 |[M:4/4] x8 | x8 | x8 | B,2 A,2 x4 | x8 | x8 | x8 | x8 | x8 |] %31

